X:1
T:Title
%%score { ( 1 3 ) | ( 2 4 ) }
L:1/8
M:6/8
K:G
V:1 treble nm="Grand Piano"
V:3 treble 
V:2 bass 
V:4 bass 
V:1
 z3 z2[Q:1/4=84] G/A/ | B>AG AEF | [G,B,G]3- [G,B,G]2 [DG] | [DFA][DFA][DFA] [DGB][DAc][DGB] | %4
 [DFA]3- [DFA]2 [GB]/[Ac]/ | [Bd]>[ce][GB] [Bd]2 [GB]/[FA]/ | [EG]>[CA][CE] [EG]2 [DF]/E/ | %7
 DGB AEF |[M:5/8] [B,G]-[B,G]- [B,G]3 |[M:1/8] [DG]/[GB]/ |[M:3/4] [Fd]>[FA] [FA][FA] [GB][Ac] | %11
 [Ac]3 [GB]2 B/-[EB]/ | [DB]>[DF] [DF][DF] [EG][FA] | [FA]3 G2 E | DG B [Bd]2 [G,D=F] | %15
 [G,CE][Ec]- [Ec]/[Ec]/ [Ec]2 [Ec] | B>A GA EF |[M:5/8] [B,G]-[B,G]- [B,G]3 |] %18
V:2
 z3 z2 [G,B,]/[G,C]/ | [G,D]>[G,C][G,B,] [D,F,C][D,G,C][D,A,C] | G,,3- G,,2 B,, | D,D,D, G,F,G, | %4
 D,3- D,2 G,/G,/ | G,>G,G, G,2 [G,,D,]/[B,,D,]/ | [C,G,]>[C,E,][C,G,] [C,C]2 [C,G,]/[C,G,C]/ | %7
 [D,G,B,][D,G,B,][D,G,D] [D,F,C][D,G,C][D,A,C] |[M:5/8] [G,,G,]-[G,,G,]- [G,,G,]3 | %9
[M:1/8] [G,B,]/[G,B,]/ |[M:3/4] [D,A,]>[D,D] [D,D][D,D] [D,D][D,D] | [G,D]4- [G,D][E,G,] | %12
 [B,,F,]>[B,,B,] [B,,B,][B,,B,] [B,,B,][B,,B,] | z2 z E2 [F,A,C] | %14
 [G,B,][K:treble][G,B,D] [G,DG][K:bass] G,2 B,, | C,[C,G,]- [C,G,]/[C,G,]/ [C,G,]2 [C,G,] | %16
 [D,G,D]>[D,G,C] [D,G,B,][D,F,C] [D,G,C][D,A,C] |[M:5/8] [G,,G,]-[G,,G,]- [G,,G,]3 |] %18
V:3
 x6 | x6 | x6 | x6 | x6 | x6 | x6 | x6 |[M:5/8] x5 |[M:1/8] x |[M:3/4] x6 | z2 z2 z .G | x6 | x6 | %14
 x6 | x6 | x6 |[M:5/8] x5 |] %18
V:4
 x6 | x6 | x6 | x6 | x6 | x6 | x6 | x6 |[M:5/8] x5 |[M:1/8] x |[M:3/4] x6 | x6 | x6 | [E,B,]6 | %14
 x[K:treble] x2[K:bass] x3 | x6 | x6 |[M:5/8] x5 |] %18

